X:180
T:The Cheltemhan Merrygoround
C:Jill Lawrence, 1974.  Chords by Colin Hume, 2022.
L:1/8
M:6/8
R:Jig
S:Colin Hume's website,  colinhume.com  - chords can also be printed below the stave.
Q:3/8=112
K:F
P:A
|: "F"{A}c3 {A}c3 | "/"{A}c3 {A}c3 | "Dm"f2e d2e | "G7"d2c "C"c3 |\
"C"G3 c3 | "/"G3 c3 | "Gm"B2A G2A | "C"G2F "F"F3 :|
P:B
|: "C"C2D E2F | "/"GAG G2G | "F"ABA A2c | "Gm"dBd "C"c3 |\
"Dm"f2e d2c | "Gm"BBA G2d | "C"c2B A2G | "F"F3 F3 :|

